X:50
T:Vals ur Carl Oskar Rosvalls notbok
T:(SmM II:50)
R:Vals
B:Småländsk Musiktradition
O:Plommarp, Edshult, Småland
N:1842
S:Carl Oskar Rosvall
M:3/4
L:1/8
K:Em
c|:B2 B2 cB|BA GA FG|(E4 G2)|G2 FE FG|FG AF G2|(E4 G2)|
B2 B2 cB|BA GA FG|(E4 G2)|FE FG FG|AF E4-|E4 zc:|
|:B2 =cd ec|B2 d2 B2|B2 =cd ec|B4 zc|B2 =cd ec|B2 d2 B2|B2 =cd ec|B4 G2|
E2 G2 B2|e2 B2 G2|BA GA FG|E2 G2 E2|E2 G2 B2|e2 B2 G2|BA GA FG|1E4 zc:|2E4 z]|

